X: 12
T:GARCON DE CAFE
M:2/4
L:1/8
Q:160
C:trad. Bresse / Jura
R:polka
K:C
G2cd|e2c2|c2Bc|d4|d2ef|g2a2|1g2gf|e2c2:|2gfed|c4||
|:c2de|d2G2|A2d2|c2B2|c2de|d2G2|A2d2|c4:|
